X:1
T:Difyrwch gw?r Llanelltyd
T:Delight of the Men of Llanelltyd, The
M:6/8
L:1/8
Q:"Allegretto"
R:Air
B:Nicholas Bennett – Alawon fy Ngwlad (1896, p. 70)
Z:AK/Fiddler’s Companion
K:F
F2F (F2G)|A2c c2A|G2 G (G2A)|B2d (d2c)|F2F (F2G)|
A2c c2A|G2G (G2A)|Bdd dcc||(f2d) (c2A)|(def) (c2A)|
(GAB) (A2G)|F3 (F2G)|(A2F) c3|c2c (A2G)|(F3 F2)||

